src/components/00-materials/images-raw/Pet.svg

<svg width="96" height="96" viewBox="0 0 96 96" fill="none" xmlns="http://www.w3.org/2000/svg">
<path d="M65.49 48.5901C65.49 47.7801 65.8 37.3701 61.7 36.5901L62.28 28.9901C62.28 28.9901 62.37 26.2801 66.08 26.5301C66.08 26.5301 75.41 27.5301 75.19 14.7001C75.19 14.7001 69.75 12.5701 66.44 12.5701C66.44 12.5701 63.83 8.43009 61.11 7.84009C61.11 7.84009 47.98 5.47009 45.62 17.1901L45 26.6401C44.8435 27.8517 44.442 29.0187 43.82 30.0701C43.82 30.0701 42.19 34.8001 33.55 44.8601C33.55 44.8601 21.96 59.8601 21.84 73.1301L21.72 82.2401C21.72 82.2401 5.87 73.0001 16.4 60.1201C16.4 60.1201 29.29 44.2601 14.27 35.8701C14.27 35.8701 11.78 35.2701 13.91 37.7601C13.91 37.7601 19.59 46.2801 10.36 56.9201C10.36 56.9201 -6.2 75.1401 18.88 86.1401C20.5006 86.758 22.1742 87.2266 23.88 87.5401C29.21 88.7501 37.01 88.2701 43.76 88.2701M41.79 34.5301C41.79 34.5301 47.15 39.6501 61.7 36.5301M43.84 30.0701C43.84 30.0701 51.06 33.8501 62.06 31.1901" stroke="#00008F" stroke-width="2" stroke-linecap="round" stroke-linejoin="round"/>
<path d="M45.38 21.6103C45.38 21.6103 51.77 27.1103 58.16 24.1803C57.5431 18.5766 55.3596 13.2602 51.86 8.84033" stroke="#00008F" stroke-width="2" stroke-linecap="round" stroke-linejoin="round"/>
<path d="M62.24 15.5102C62.5438 15.5102 62.79 15.2639 62.79 14.9602C62.79 14.6564 62.5438 14.4102 62.24 14.4102C61.9362 14.4102 61.69 14.6564 61.69 14.9602C61.69 15.2639 61.9362 15.5102 62.24 15.5102Z" stroke="#00008F" stroke-width="2" stroke-miterlimit="10"/>
<path d="M41.74 68.0001C41.74 68.0001 35.8 72.0001 39.35 79.7201C39.35 79.7201 41.24 81.0201 41.12 77.9501C41.12 77.9501 40.17 68.0101 44.43 60.2001C44.43 60.2001 50.11 50.3901 61.82 49.4401C61.82 49.4401 69.04 48.7301 69.63 44.4401C69.63 44.4401 71.52 36.6301 76.85 36.7501C76.85 36.7501 80.39 30.4801 84.06 31.5501C84.06 31.5501 83 35.9201 83.71 37.3401L88.56 40.4201C88.56 40.4201 88.08 43.7301 90.45 45.5101C92.82 47.2901 86.9 50.7101 85.24 49.7601C85.24 49.7601 81.93 48.9401 82.05 53.0801V58.9901C82.2061 60.4944 81.9203 62.0116 81.2276 63.3561C80.535 64.7005 79.4655 65.8139 78.15 66.5601C78.15 66.5601 71.31 71.2901 70.37 76.2601C69.8371 78.6173 69.6384 81.0376 69.78 83.4501C69.78 83.4501 73.21 84.3101 72.14 88.2101H44C44 88.2101 33.22 86.8201 33.22 76.0901C33.22 73.5801 33.31 65.9801 43.49 62.1901" stroke="#00008F" stroke-width="2" stroke-linecap="round" stroke-linejoin="round"/>
<path d="M84.8503 43.3035C84.9274 43.2973 84.9803 43.1718 84.9684 43.0232C84.9565 42.8746 84.8844 42.7591 84.8073 42.7652C84.7302 42.7714 84.6774 42.8969 84.6893 43.0455C84.7011 43.1942 84.7733 43.3097 84.8503 43.3035Z" stroke="#00008F" stroke-width="2" stroke-miterlimit="10"/>
<path d="M82.05 53.7599C82.05 53.7599 73.21 54.4299 68.05 47.1499M66.25 88.2699C67.25 84.8099 64.45 84.8699 64.45 84.8699L56.91 84.5999C62.65 84.0699 63.57 81.6799 63.57 81.6799C65.25 78.7499 65.08 71.6799 65.08 71.6799C65.08 71.6799 65.49 62.2199 52.48 65.9999M48.83 55.1299C48.2496 54.4154 47.5339 53.8224 46.724 53.3848C45.9141 52.9472 45.0258 52.6737 44.11 52.5799C39.18 52.5799 38.81 58.1599 38.81 58.1599C38.76 59.4699 37.7 59.4699 37.26 59.4699C36.8503 59.4978 36.4443 59.3765 36.1171 59.1283C35.7899 58.8802 35.5636 58.522 35.48 58.1199C35.5419 56.3903 35.9967 54.6976 36.81 53.1699C42.17 44.4999 51.05 51.2499 52.09 52.6899L48.83 55.1299Z" stroke="#00008F" stroke-width="2" stroke-linecap="round" stroke-linejoin="round"/>
</svg>

<svg width="96" height="96" viewBox="0 0 96 96" fill="none" xmlns="http://www.w3.org/2000/svg"><path d="M65.49 48.59c0-.81.31-11.22-3.79-12l.58-7.6s.09-2.71 3.8-2.46c0 0 9.33 1 9.11-11.83 0 0-5.44-2.13-8.75-2.13 0 0-2.61-4.14-5.33-4.73 0 0-13.13-2.37-15.49 9.35L45 26.64a9.001 9.001 0 01-1.18 3.43s-1.63 4.73-10.27 14.79c0 0-11.59 15-11.71 28.27l-.12 9.11S5.87 73 16.4 60.12c0 0 12.89-15.86-2.13-24.25 0 0-2.49-.6-.36 1.89 0 0 5.68 8.52-3.55 19.16 0 0-16.56 18.22 8.52 29.22a28.49 28.49 0 005 1.4c5.33 1.21 13.13.73 19.88.73m-1.97-53.74s5.36 5.12 19.91 2m-17.86-6.46s7.22 3.78 18.22 1.12" stroke="#00008F" stroke-width="2" stroke-linecap="round" stroke-linejoin="round"/><path d="M45.38 21.61s6.39 5.5 12.78 2.57a30 30 0 00-6.3-15.34" stroke="#00008F" stroke-width="2" stroke-linecap="round" stroke-linejoin="round"/><path d="M62.24 15.51a.55.55 0 100-1.1.55.55 0 000 1.1z" stroke="#00008F" stroke-width="2" stroke-miterlimit="10"/><path d="M41.74 68s-5.94 4-2.39 11.72c0 0 1.89 1.3 1.77-1.77 0 0-.95-9.94 3.31-17.75 0 0 5.68-9.81 17.39-10.76 0 0 7.22-.71 7.81-5 0 0 1.89-7.81 7.22-7.69 0 0 3.54-6.27 7.21-5.2 0 0-1.06 4.37-.35 5.79l4.85 3.08s-.48 3.31 1.89 5.09c2.37 1.78-3.55 5.2-5.21 4.25 0 0-3.31-.82-3.19 3.32v5.91a7.78 7.78 0 01-3.9 7.57s-6.84 4.73-7.78 9.7a25.76 25.76 0 00-.59 7.19s3.43.86 2.36 4.76H44s-10.78-1.39-10.78-12.12c0-2.51.09-10.11 10.27-13.9" stroke="#00008F" stroke-width="2" stroke-linecap="round" stroke-linejoin="round"/><path d="M84.85 43.303c.077-.006.13-.131.118-.28-.011-.148-.084-.264-.16-.258-.078.006-.13.132-.119.28.012.15.084.265.161.258z" stroke="#00008F" stroke-width="2" stroke-miterlimit="10"/><path d="M82.05 53.76s-8.84.67-14-6.61m-1.8 41.12c1-3.46-1.8-3.4-1.8-3.4l-7.54-.27c5.74-.53 6.66-2.92 6.66-2.92 1.68-2.93 1.51-10 1.51-10s.41-9.46-12.6-5.68m-3.65-10.87a7 7 0 00-4.72-2.55c-4.93 0-5.3 5.58-5.3 5.58-.05 1.31-1.11 1.31-1.55 1.31a1.7 1.7 0 01-1.78-1.35c.062-1.73.517-3.422 1.33-4.95 5.36-8.67 14.24-1.92 15.28-.48l-3.26 2.44z" stroke="#00008F" stroke-width="2" stroke-linecap="round" stroke-linejoin="round"/></svg>
